docs/assets/twitericon.svg

<svg width="61" height="50" viewBox="0 0 61 50" fill="none" xmlns="http://www.w3.org/2000/svg">
<g clip-path="url(#clip0_1_3018)">
<path d="M60.4694 6.14848C59.0079 8.44854 57.1625 10.3728 55.0367 12.0114C54.6086 12.3421 54.4757 12.6578 54.4905 13.199C54.6381 19.0318 53.398 24.564 50.9178 29.8105C47.9652 36.0793 43.6545 41.1605 37.8379 44.8286C33.7043 47.4443 29.2016 48.9927 24.3741 49.6542C20.9786 50.1202 17.5832 50.1202 14.2024 49.6241C9.30116 48.9025 4.72465 47.2038 0.531983 44.4978C0.502457 44.4828 0.487694 44.4377 0.413879 44.3625C7.08672 44.9789 13.0805 43.3102 18.5575 39.131C17.6274 39.0559 16.845 38.9957 16.0921 38.8153C11.8404 37.733 8.90256 35.1022 7.23435 30.9981C6.98338 30.3668 7.02767 30.3367 7.70676 30.4419C9.18305 30.6524 10.6446 30.5622 12.1061 30.2465C12.1947 30.2315 12.2833 30.1713 12.4014 30.1262C5.31517 28.3373 2.45116 21.8881 2.76118 17.6638C4.44416 18.5207 6.17142 19.092 8.22346 19.1371C5.52185 17.1377 3.79459 14.6121 3.10073 11.4251C2.40687 8.23808 2.90881 5.2465 4.44416 2.40524C4.68036 2.46538 4.75418 2.63074 4.87228 2.76604C10.0098 8.94463 16.5055 12.9434 24.3003 14.7324C26.0275 15.1232 27.7843 15.3187 29.5559 15.484C29.9988 15.5291 29.9692 15.3638 29.9102 15.018C29.2016 10.3126 30.4564 6.26874 33.9848 3.1118C36.8488 0.556177 40.2442 -0.40594 44.0235 0.18035C46.6513 0.586243 48.9101 1.77386 50.7997 3.66802C51.0359 3.90855 51.2279 3.96868 51.5674 3.89352C53.959 3.35233 56.2325 2.49544 58.3731 1.27776C58.5207 1.18757 58.6831 1.1124 58.9489 0.977103C58.0188 3.90855 56.2768 6.07331 53.708 7.81715C54.6233 7.78709 55.3467 7.62172 56.0701 7.44132C56.7935 7.26093 57.5169 7.0655 58.2255 6.84C58.9489 6.59947 59.6722 6.32888 60.3956 6.05828C60.4104 6.08835 60.4399 6.11841 60.4694 6.14848Z" fill="white"/>
</g>
<defs>
<clipPath id="clip0_1_3018">
<rect width="60.0556" height="50" fill="white" transform="translate(0.413879)"/>
</clipPath>
</defs>
</svg>

<svg xmlns="http://www.w3.org/2000/svg" width="61" height="50" fill="none" xmlns:v="https://vecta.io/nano"><g clip-path="url(#A)"><path d="M60.469 6.148c-1.462 2.3-3.307 4.224-5.433 5.863-.428.331-.561.646-.546 1.188.148 5.833-1.092 11.365-3.573 16.612-2.953 6.269-7.263 11.35-13.08 15.018-4.134 2.616-8.636 4.164-13.464 4.826-3.395.466-6.791.466-10.172-.03-4.901-.722-9.478-2.42-13.67-5.126-.03-.015-.044-.06-.118-.135 6.673.616 12.667-1.052 18.144-5.231-.93-.075-1.713-.135-2.465-.316-4.252-1.082-7.19-3.713-8.858-7.817-.251-.631-.207-.661.472-.556 1.476.21 2.938.12 4.399-.195.089-.015.177-.075.295-.12-7.086-1.789-9.95-8.238-9.64-12.462 1.683.857 3.41 1.428 5.462 1.473-2.702-1.999-4.429-4.525-5.123-7.712s-.192-6.179 1.343-9.02c.236.06.31.225.428.361C10.01 8.945 16.506 12.943 24.3 14.732c1.727.391 3.484.586 5.256.752.443.045.413-.12.354-.466-.709-4.705.546-8.749 4.075-11.906C36.849.556 40.244-.406 44.024.18c2.628.406 4.887 1.594 6.776 3.488a.7.7 0 0 0 .768.226c2.392-.541 4.665-1.398 6.806-2.616.148-.09.31-.165.576-.301-.93 2.931-2.672 5.096-5.241 6.84.915-.03 1.639-.195 2.362-.376a35.2 35.2 0 0 0 2.155-.601c.723-.241 1.447-.511 2.17-.782.015.03.044.06.074.09z" fill="#fff"/></g><defs><clipPath id="A"><path fill="#fff" transform="translate(.414)" d="M0 0h60.056v50H0z"/></clipPath></defs></svg>
